X:1
T:Schottis (?)
O:Frankrike (?)
R:schottis
M:2/2
L:1/8
K:D
"D"A3d "G"B2ef|"A11"edce d2cd|"D"A3d "G"B2ef|"A"edce "D"d2fd|
"D"A3d "G"B2ef|"A11"edce d2cd|"Bm"fdAd "Em"B2ef|"A"edce "D"d4:|
"A"e6 fg|a4 gfed|edef e2fg|a2a2 gefd|
"Em"e2e2 e2fg|"F#m"a4 gfed|"G"edef e2fg|"A11"a2a2 gfed|]

